ix/frame-1_bold.svg

<svg viewBox="0 0 24 24" fill="none" xmlns="http://www.w3.org/2000/svg" height="1em" width="1em">
  <path d="M20.4098 6.96141V8.79141C20.4098 9.43141 20.1098 10.0314 19.5898 10.4014L8.58984 18.4614C7.87984 18.9814 6.90984 18.9814 6.20984 18.4514L4.76984 17.3714C4.11984 16.8814 3.58984 15.8214 3.58984 15.0114V6.96141C3.58984 5.84141 4.44984 4.60141 5.49984 4.21141L10.9698 2.16141C11.5398 1.95141 12.4598 1.95141 13.0298 2.16141L18.4998 4.21141C19.5498 4.60141 20.4098 5.84141 20.4098 6.96141Z" fill="#292D32"/>
  <path d="M18.8216 12.3414C19.4816 11.8614 20.4116 12.3314 20.4116 13.1514V15.0314C20.4116 15.8414 19.8816 16.8914 19.2316 17.3814L13.7616 21.4714C13.2816 21.8214 12.6416 22.0014 12.0016 22.0014C11.3616 22.0014 10.7216 21.8214 10.2416 21.4614L9.41157 20.8414C8.87157 20.4414 8.87157 19.6314 9.42157 19.2314L18.8216 12.3414Z" fill="#292D32"/>
</svg>

<svg viewBox="0 0 24 24" fill="none" xmlns="http://www.w3.org/2000/svg" height="1em" width="1em">
  <path d="M20.41 6.961v1.83c0 .64-.3 1.24-.82 1.61l-11 8.06c-.71.52-1.68.52-2.38-.01l-1.44-1.08c-.65-.49-1.18-1.55-1.18-2.36v-8.05c0-1.12.86-2.36 1.91-2.75l5.47-2.05c.57-.21 1.49-.21 2.06 0l5.47 2.05c1.05.39 1.91 1.63 1.91 2.75Zm-1.588 5.38c.66-.48 1.59-.01 1.59.81v1.88c0 .81-.53 1.86-1.18 2.35l-5.47 4.09c-.48.35-1.12.53-1.76.53-.64 0-1.28-.18-1.76-.54l-.83-.62a.997.997 0 0 1 .01-1.61l9.4-6.89Z" fill="#292D32"/>
</svg>
